X: 21
T: The Prince of Brunswick's Reel
R: jig
M: 6/8
L: 1/8
Z: 2010 John Chambers <jc:trillian.mit.edu>
B: John Johnson ed. "Twenty Four Country Dances", p.83 London 1766
N: The only repeat symbol was :||: in bar 8.  Rewriting it as :| makes the tune 32 bars.
N: If you instead place a :| repeat at the end, you get a good 48-bar jig, played AABCBC.
K: G
D |\
G2G GDG | A2D DGA | BcB AGF | G2G G2D |\
G2G GDG | A2D DGA | BcB AGF | G3- G2 :|
B/c/ |\
d2d dgd | c2c cAB | c2c cec | B2B BGA |\
B2B BdB | G2G GAB | AGF ED^C | D3- D2 ||
D |\
G2G GDG | A2D DGA | BcB AGF | G2G G2D |\
G2G GDG | A2D DGA | BcB AGF | G3- G2 |]
B |\
e2e e^de | ^d^cB B2B | d2d d^cd | ^cBA A2A |\
cBc cBc | B^AB B"*)"AG | e2c Be^d | e2E E2 ||
D |\
G2G GDG | A2D DGA | BcB AGF | G2G G2D |\
G2G GDG | A2D DGA | BcB AGF | G3- G2 |]
W: *) Should probably be A natural.


%%sep 5 1 500

